app/client/src/assets/icons/blueprintjs/16px/align-justify.svg

<svg xmlns="http://www.w3.org/2000/svg" xml:space="preserve" viewBox="0 0 16 16"><path fill-rule="evenodd" d="M15 12.98H1c-.55 0-1 .45-1 1s.45 1 1 1h14c.55 0 1-.45 1-1s-.45-1-1-1zm-14-10h14c.55 0 1-.45 1-1s-.45-1-1-1H1c-.55 0-1 .45-1 1 0 .56.45 1 1 1zm14 4H1c-.55 0-1 .45-1 1s.45 1 1 1h14c.55 0 1-.45 1-1s-.45-1-1-1zm0-3H1c-.55 0-1 .45-1 1s.45 1 1 1h14c.55 0 1-.45 1-1s-.45-1-1-1zm0 6H1c-.55 0-1 .45-1 1s.45 1 1 1h14c.55 0 1-.45 1-1s-.45-1-1-1z" clip-rule="evenodd"/></svg>

<?xml version="1.0" encoding="utf-8"?>
<!-- Generator: Adobe Illustrator 17.1.0, SVG Export Plug-In . SVG Version: 6.00 Build 0)  -->
<!DOCTYPE svg PUBLIC "-//W3C//DTD SVG 1.1//EN" "http://www.w3.org/Graphics/SVG/1.1/DTD/svg11.dtd">
<svg version="1.1" id="Layer_1" xmlns="http://www.w3.org/2000/svg" xmlns:xlink="http://www.w3.org/1999/xlink" x="0px" y="0px"
	 viewBox="0 0 16 16" enable-background="new 0 0 16 16" xml:space="preserve">
<g id="Rounded_Rectangle_3">
	<g>
		<path fill-rule="evenodd" clip-rule="evenodd" d="M15,12.98H1c-0.55,0-1,0.45-1,1c0,0.55,0.45,1,1,1h14c0.55,0,1-0.45,1-1
			C16,13.43,15.55,12.98,15,12.98z M1,2.98h14c0.55,0,1-0.45,1-1c0-0.55-0.45-1-1-1H1c-0.55,0-1,0.45-1,1C0,2.54,0.45,2.98,1,2.98z
			 M15,6.98H1c-0.55,0-1,0.45-1,1c0,0.55,0.45,1,1,1h14c0.55,0,1-0.45,1-1C16,7.43,15.55,6.98,15,6.98z M15,3.98H1
			c-0.55,0-1,0.45-1,1c0,0.55,0.45,1,1,1h14c0.55,0,1-0.45,1-1C16,4.43,15.55,3.98,15,3.98z M15,9.98H1c-0.55,0-1,0.45-1,1
			c0,0.55,0.45,1,1,1h14c0.55,0,1-0.45,1-1C16,10.43,15.55,9.98,15,9.98z"/>
	</g>
</g>
</svg>
